svg/fluentui-system-icons/ic_fluent_cube_sync_24_regular.svg

<svg width="24" height="24" viewBox="0 0 24 24" fill="none" xmlns="http://www.w3.org/2000/svg">
<path d="M6.04873 7.98501C6.19566 7.59774 6.62872 7.4029 7.016 7.54983L12 9.44071L16.9839 7.54983C17.3712 7.4029 17.8043 7.59774 17.9512 7.98501C18.0981 8.37229 17.9033 8.80536 17.516 8.95229L12.75 10.7605V13.0639C12.0577 13.8047 11.5366 14.7076 11.25 15.7095V10.7605L6.48392 8.95229C6.09664 8.80536 5.9018 8.37229 6.04873 7.98501ZM20.5 7.17477V11.7332C21.051 12.0204 21.5557 12.3842 22 12.8105V7.17477C22 6.46216 21.5679 5.82071 20.9075 5.55298L13.4089 2.51301C12.5053 2.14671 11.4947 2.14671 10.5911 2.51301L3.09252 5.55298C2.43211 5.82071 2 6.46216 2 7.17477V16.8275C2 17.5401 2.43211 18.1815 3.09252 18.4493L10.5911 21.4892C11.2187 21.7437 11.898 21.8214 12.5572 21.7224C12.173 21.273 11.8491 20.7706 11.5979 20.2278C11.4472 20.2004 11.2987 20.1575 11.1547 20.0991L3.65607 17.0592C3.56173 17.0209 3.5 16.9293 3.5 16.8275V7.17477C3.5 7.07297 3.56173 6.98133 3.65607 6.94309L11.1547 3.90312C11.6968 3.68334 12.3032 3.68334 12.8453 3.90312L20.3439 6.94309C20.4383 6.98133 20.5 7.07297 20.5 7.17477ZM12 17.501C12 20.5385 14.4624 23.001 17.5 23.001C20.5376 23.001 23 20.5385 23 17.501C23 14.4634 20.5376 12.001 17.5 12.001C14.4624 12.001 12 14.4634 12 17.501ZM20.5 14.001C20.7761 14.001 21 14.2248 21 14.501V16.501C21 16.7771 20.7761 17.001 20.5 17.001H18.5C18.2239 17.001 18 16.7771 18 16.501C18 16.2248 18.2239 16.001 18.5 16.001H19.5003C19.0436 15.393 18.3174 15.001 17.5 15.001C16.6666 15.001 15.9283 15.4083 15.4733 16.037C15.3113 16.2607 14.9987 16.3107 14.775 16.1488C14.5514 15.9869 14.5013 15.6743 14.6632 15.4506C15.2982 14.5733 16.3323 14.001 17.5 14.001C18.4798 14.001 19.3651 14.4037 20 15.0516V14.501C20 14.2248 20.2239 14.001 20.5 14.001ZM15 19.9504V20.501C15 20.7771 14.7761 21.001 14.5 21.001C14.2239 21.001 14 20.7771 14 20.501V18.501C14 18.2248 14.2239 18.001 14.5 18.001H16.5C16.7761 18.001 17 18.2248 17 18.501C17 18.7771 16.7761 19.001 16.5 19.001H15.4998C15.9564 19.6089 16.6827 20.001 17.5 20.001C18.2663 20.001 18.9518 19.6568 19.4112 19.1128C19.5893 18.9018 19.9048 18.8752 20.1158 19.0533C20.3268 19.2315 20.3534 19.5469 20.1752 19.7579C19.534 20.5173 18.5732 21.001 17.5 21.001C16.5203 21.001 15.6349 20.5983 15 19.9504Z" fill="#212121"/>
</svg>

<svg xmlns="http://www.w3.org/2000/svg" width="24" height="24"><path d="M6.049 7.985a.75.75 0 0 1 .967-.435L12 9.44l4.984-1.89a.75.75 0 1 1 .532 1.402l-4.766 1.809v2.303a6.49 6.49 0 0 0-1.5 2.646v-4.95L6.484 8.953a.75.75 0 0 1-.435-.967Zm14.451-.81v4.558A6.52 6.52 0 0 1 22 12.81V7.175a1.75 1.75 0 0 0-1.093-1.622l-7.498-3.04a3.75 3.75 0 0 0-2.818 0l-7.498 3.04A1.75 1.75 0 0 0 2 7.175v9.653a1.75 1.75 0 0 0 1.093 1.621l7.498 3.04a3.75 3.75 0 0 0 1.966.233 6.505 6.505 0 0 1-.96-1.494 2.25 2.25 0 0 1-.442-.129l-7.499-3.04a.25.25 0 0 1-.156-.232V7.176a.25.25 0 0 1 .156-.232l7.499-3.04a2.25 2.25 0 0 1 1.69 0l7.499 3.04a.25.25 0 0 1 .156.232ZM12 17.5a5.5 5.5 0 1 0 11 0 5.5 5.5 0 0 0-11 0Zm8.5-3.5a.5.5 0 0 1 .5.5v2a.5.5 0 0 1-.5.5h-2a.5.5 0 0 1 0-1h1a2.496 2.496 0 0 0-2-1c-.833 0-1.572.407-2.027 1.036a.5.5 0 0 1-.81-.586A3.496 3.496 0 0 1 17.5 14c.98 0 1.865.403 2.5 1.05v-.55a.5.5 0 0 1 .5-.5ZM15 19.95v.55a.5.5 0 0 1-1 0v-2a.5.5 0 0 1 .5-.5h2a.5.5 0 1 1 0 1h-1c.456.608 1.183 1 2 1 .766 0 1.452-.344 1.911-.888a.5.5 0 0 1 .764.645A3.494 3.494 0 0 1 17.5 21a3.49 3.49 0 0 1-2.5-1.05Z"/></svg>
